X:1
T:Title
%%score ( 1 2 ) 3
L:1/8
Q:1/4=88
M:6/8
K:Bb
V:1 treble nm="Grand Piano, Soprano"
V:2 treble 
V:3 bass nm="Choir Pad, Just over the River"
V:1
 [B,D]/[CE]/[DF][DF] [DF][DF][B,D] | [DF][DB][DB] [DB][EB][EA] | [EG][DF][DF] [DF][FB][Fc] | %3
w: By~James~Henry~Fillmore,~Sr. * * * * * *|||
 [Fd] [Fc]2- [Fc]2- [Fc]/ z/ | [B,D]/[CE]/[DF][DF] [DF][DF][B,D] | [DF][DB][EB] [FB][GB][FA] | %6
w: |||
 [EG][DF][DB] [Fd][Ec][DB] | [CA] [DB]2- [DB]2- [DB]/ z/ | .A3 z3 | [Fc][Fd][Fd] [Fd][Fd][Ec] | %10
w: ||||
 [Fd][Ge][Ge] [Ge][Fd][Fc] | [FB] [Fc]2- [Fc]2- [Fc]/ z/ | [B,D]/[CE]/[DF][DF] [DF][DF][B,D] | %13
w: |||
 [DF][DB][EB] [FB][GB][FA] | [EG][DF][DB] [Fd][Ec][DB] | [EA] [DB]2- [DB]2- [DB]/ z/ | %16
w: |||
 z d2- d3/2 z/ z | z B2- B3/2 z/ z | [EG][DF][DF] [DF][FB][Fc] | [Fd] [Fc]2- [Fc]2- [Fc]/ z/ | %20
w: ||||
 z d2- d3/2 z/ z | z B2- B3/2 z/ z | [EG][DF][DB] [Fd][Ec][DB] | [EA] [DB]2- [DB]3- | [DB]3 z3 |] %25
w: |||||
V:2
 x6 | x6 | x6 | x6 | x6 | x6 | x6 | x6 | F/-[FB]/[Fc][Fc] [Fc][Fc][FB] | x6 | x6 | x6 | x6 | x6 | %14
 x6 | x6 | [DF]FF FF[Fc] | [GB]GG GG[FA] | x6 | x6 | [DF]FF FF[Fc] | [FB]GG GG[FA] | x6 | x6 | %24
 x6 |] %25
V:3
 [B,,F,][B,,B,][B,,B,] [B,,B,][B,,B,][B,,F,] | [B,,B,][B,,F,][B,,F,] [B,,F,][E,G,][E,A,] | %2
 [E,B,][B,,B,][B,,B,] [B,,B,][D,B,][C,A,] | [B,,B,] [F,A,]2- [F,A,]2- [F,A,]/ z/ | %4
 [B,,F,][B,,B,][B,,B,] [B,,B,][B,,B,][B,,F,] | [B,,B,][B,,B,][C,B,] [D,B,][D,B,][E,B,] | %6
 [E,B,][F,B,][F,B,] [F,B,]F,F, | F, [B,,F,]2- [B,,F,]2- [B,,F,]/ z/ | %8
 F,/G,/[F,A,][F,A,] [F,A,][F,A,][F,G,] | [F,A,]B,B, B,B,B, | B,[E,B,][E,B,] [E,B,][B,,B,][C,A,] | %11
 [D,B,] [F,A,]2- [F,A,]2- [F,A,]/ z/ | [B,,F,][B,,B,][B,,B,] [B,,B,][B,,B,][B,,F,] | %13
 [B,,B,][B,,B,][C,B,] [D,B,][E,B,][E,B,] | [E,B,][F,B,][F,B,] [F,B,][F,A,][F,B,] | %15
 [F,C] [B,,B,]2- [B,,B,]2- [B,,B,]/ z/ | [B,,B,][B,,B,][B,,B,] [B,,B,][B,,B,][C,A,] | %17
 [D,B,][E,B,][E,B,] [E,B,][E,B,][E,B,] | [E,B,][B,,B,][B,,B,] [B,,B,][D,B,][F,A,] | %19
 B, [F,A,]2- [F,A,]2- [F,A,]/ z/ | [F,A,][B,,B,][B,,B,] [B,,B,][B,,B,][C,A,] | %21
 [D,B,][E,B,][E,B,] [E,B,][E,B,][E,B,] | [E,B,][F,B,][F,B,] [F,B,][F,B,][F,B,] | %23
 [F,C] [B,,B,]2- [B,,B,]3- | [B,,B,]3 z3 |] %25

